Sweet-Rainbow/icons/stacer.svg

<?xml version="1.0" encoding="UTF-8" standalone="no"?>
<!-- Generator: Gravit.io -->

<svg
   xmlns:dc="http://purl.org/dc/elements/1.1/"
   xmlns:cc="http://creativecommons.org/ns#"
   xmlns:rdf="http://www.w3.org/1999/02/22-rdf-syntax-ns#"
   xmlns:svg="http://www.w3.org/2000/svg"
   xmlns="http://www.w3.org/2000/svg"
   xmlns:sodipodi="http://sodipodi.sourceforge.net/DTD/sodipodi-0.dtd"
   xmlns:inkscape="http://www.inkscape.org/namespaces/inkscape"
   style="isolation:isolate"
   viewBox="0 0 36 36"
   width="48"
   height="48"
   version="1.1"
   id="svg16"
   sodipodi:docname="stacer.svg"
   inkscape:version="0.92.4 (5da689c313, 2019-01-14)">
  <metadata
     id="metadata22">
    <rdf:RDF>
      <cc:Work
         rdf:about="">
        <dc:format>image/svg+xml</dc:format>
        <dc:type
           rdf:resource="http://purl.org/dc/dcmitype/StillImage" />
        <dc:title></dc:title>
      </cc:Work>
    </rdf:RDF>
  </metadata>
  <defs
     id="defs20" />
  <sodipodi:namedview
     pagecolor="#ffffff"
     bordercolor="#666666"
     borderopacity="1"
     objecttolerance="10"
     gridtolerance="10"
     guidetolerance="10"
     inkscape:pageopacity="0"
     inkscape:pageshadow="2"
     inkscape:window-width="640"
     inkscape:window-height="480"
     id="namedview18"
     showgrid="false"
     inkscape:zoom="29.365243"
     inkscape:cx="25.325443"
     inkscape:cy="32"
     inkscape:current-layer="svg16"
     units="px" />
  <linearGradient
     id="_lgradient_9"
     x1="0"
     y1="0.5"
     x2="1"
     y2="0.5"
     gradientTransform="matrix(13.193,0,0,8.574,21,21)"
     gradientUnits="userSpaceOnUse">
    <stop
       offset="0%"
       stop-opacity="1"
       style="stop-color:rgb(67,233,123)"
       id="stop2" />
    <stop
       offset="97.82608695652173%"
       stop-opacity="1"
       style="stop-color:rgb(56,249,215)"
       id="stop4" />
  </linearGradient>
  <linearGradient
     id="_lgradient_10"
     x1="0"
     y1="0.5"
     x2="1"
     y2="0.5"
     gradientTransform="matrix(47.995,0,0,47.384,0.002,0.002)"
     gradientUnits="userSpaceOnUse">
    <stop
       offset="0%"
       stop-opacity="1"
       style="stop-color:rgb(132,250,176)"
       id="stop9" />
    <stop
       offset="98.26086956521739%"
       stop-opacity="1"
       style="stop-color:rgb(143,211,244)"
       id="stop11" />
  </linearGradient>
  <g
     id="g831"
     transform="matrix(0.75008397,0,0,0.75008397,-0.00201528,0.22710842)">
    <path
       id="path7"
       d="m 26.925,24.667 7.268,4.907 -7.944,-3.59 C 25.699,26.607 24.895,27 24,27 c -1.656,0 -3,-1.344 -3,-3 0,-1.656 1.344,-3 3,-3 1.656,0 3,1.344 3,3 0,0.229 -0.026,0.453 -0.075,0.667 z"
       style="fill:url(#_lgradient_9);fill-rule:evenodd"
       inkscape:connector-curvature="0" />
    <path
       id="path14"
       d="m 8,32 c 0,-1.104 0.896,-2 2,-2 1.104,0 2,0.896 2,2 0,1.104 -0.896,2 -2,2 C 8.896,34 8,33.104 8,32 Z M 6,24 c 0,-1.104 0.896,-2 2,-2 1.104,0 2,0.896 2,2 0,1.104 -0.896,2 -2,2 -1.104,0 -2,-0.896 -2,-2 z m 2,-8 c 0,-1.104 0.896,-2 2,-2 1.104,0 2,0.896 2,2 0,1.104 -0.896,2 -2,2 -1.104,0 -2,-0.896 -2,-2 z m 6,-6 c 0,-1.104 0.896,-2 2,-2 1.104,0 2,0.896 2,2 0,1.104 -0.896,2 -2,2 -1.104,0 -2,-0.896 -2,-2 z m 26,22 c 0,-1.104 -0.896,-2 -2,-2 -1.104,0 -2,0.896 -2,2 0,1.104 0.896,2 2,2 1.104,0 2,-0.896 2,-2 z m 2,-8 c 0,-1.104 -0.896,-2 -2,-2 -1.104,0 -2,0.896 -2,2 0,1.104 0.896,2 2,2 1.104,0 2,-0.896 2,-2 z m -2,-8 c 0,-1.104 -0.896,-2 -2,-2 -1.104,0 -2,0.896 -2,2 0,1.104 0.896,2 2,2 1.104,0 2,-0.896 2,-2 z m -6,-6 c 0,-1.104 -0.896,-2 -2,-2 -1.104,0 -2,0.896 -2,2 0,1.104 0.896,2 2,2 1.104,0 2,-0.896 2,-2 z M 22,8 c 0,-1.104 0.896,-2 2,-2 1.104,0 2,0.896 2,2 0,1.104 -0.896,2 -2,2 -1.104,0 -2,-0.896 -2,-2 z m -4.285,34.989 v 0 c 1.047,0.347 1.615,1.479 1.268,2.526 v 0 c -0.348,1.047 -1.48,1.615 -2.527,1.267 v 0 C 14.056,45.993 11.799,44.824 9.772,43.328 3.053,38.369 -0.629,30.257 0.092,21.939 0.466,17.542 2.054,13.32 4.672,9.772 9.631,3.053 17.743,-0.629 26.061,0.092 c 4.397,0.374 8.611,1.956 12.167,4.58 6.719,4.959 10.401,13.071 9.68,21.389 -0.374,4.397 -1.956,8.611 -4.58,12.167 -3.35,4.538 -8.191,7.763 -13.667,9.103 v 0 c -1.074,0.257 -2.159,-0.405 -2.421,-1.476 v 0 c -0.263,-1.072 0.4,-2.154 1.477,-2.415 v 0 C 33.283,42.323 37.312,39.642 40.109,35.853 42.289,32.9 43.612,29.39 43.924,25.717 44.517,18.785 41.453,12.024 35.853,7.891 32.892,5.705 29.39,4.388 25.717,4.076 18.785,3.483 12.024,6.547 7.891,12.147 5.711,15.1 4.388,18.61 4.076,22.283 c -0.593,6.932 2.471,13.693 8.071,17.826 1.69,1.247 3.567,2.223 5.568,2.88 z"
       style="fill:url(#_lgradient_10);fill-rule:evenodd"
       inkscape:connector-curvature="0" />
  </g>
</svg>

<?xml version="1.0" encoding="UTF-8" standalone="no"?><!-- Generator: Gravit.io --><svg xmlns="http://www.w3.org/2000/svg" xmlns:xlink="http://www.w3.org/1999/xlink" style="isolation:isolate" viewBox="0 0 48 48" width="48pt" height="48pt"><linearGradient id="_lgradient_9" x1="0" y1="0.5" x2="1" y2="0.5" gradientTransform="matrix(13.193,0,0,8.574,21,21)" gradientUnits="userSpaceOnUse"><stop offset="0%" stop-opacity="1" style="stop-color:rgb(67,233,123)"/><stop offset="97.82608695652173%" stop-opacity="1" style="stop-color:rgb(56,249,215)"/></linearGradient><path d=" M 26.925 24.667 L 34.193 29.574 L 26.249 25.984 C 25.699 26.607 24.895 27 24 27 C 22.344 27 21 25.656 21 24 C 21 22.344 22.344 21 24 21 C 25.656 21 27 22.344 27 24 C 27 24.229 26.974 24.453 26.925 24.667 Z " fill-rule="evenodd" fill="url(#_lgradient_9)"/><linearGradient id="_lgradient_10" x1="0" y1="0.5" x2="1" y2="0.5" gradientTransform="matrix(47.995,0,0,47.384,0.002,0.002)" gradientUnits="userSpaceOnUse"><stop offset="0%" stop-opacity="1" style="stop-color:rgb(132,250,176)"/><stop offset="98.26086956521739%" stop-opacity="1" style="stop-color:rgb(143,211,244)"/></linearGradient><path d=" M 8 32 C 8 30.896 8.896 30 10 30 C 11.104 30 12 30.896 12 32 C 12 33.104 11.104 34 10 34 C 8.896 34 8 33.104 8 32 L 8 32 L 8 32 L 8 32 L 8 32 L 8 32 L 8 32 L 8 32 L 8 32 Z  M 6 24 C 6 22.896 6.896 22 8 22 C 9.104 22 10 22.896 10 24 C 10 25.104 9.104 26 8 26 C 6.896 26 6 25.104 6 24 L 6 24 L 6 24 L 6 24 L 6 24 L 6 24 L 6 24 L 6 24 L 6 24 Z  M 8 16 C 8 14.896 8.896 14 10 14 C 11.104 14 12 14.896 12 16 C 12 17.104 11.104 18 10 18 C 8.896 18 8 17.104 8 16 L 8 16 L 8 16 L 8 16 L 8 16 L 8 16 L 8 16 L 8 16 Z  M 14 10 C 14 8.896 14.896 8 16 8 C 17.104 8 18 8.896 18 10 C 18 11.104 17.104 12 16 12 C 14.896 12 14 11.104 14 10 L 14 10 L 14 10 L 14 10 L 14 10 L 14 10 L 14 10 Z  M 40 32 C 40 30.896 39.104 30 38 30 C 36.896 30 36 30.896 36 32 C 36 33.104 36.896 34 38 34 C 39.104 34 40 33.104 40 32 L 40 32 L 40 32 L 40 32 L 40 32 L 40 32 Z  M 42 24 C 42 22.896 41.104 22 40 22 C 38.896 22 38 22.896 38 24 C 38 25.104 38.896 26 40 26 C 41.104 26 42 25.104 42 24 L 42 24 L 42 24 L 42 24 L 42 24 Z  M 40 16 C 40 14.896 39.104 14 38 14 C 36.896 14 36 14.896 36 16 C 36 17.104 36.896 18 38 18 C 39.104 18 40 17.104 40 16 L 40 16 L 40 16 L 40 16 Z  M 34 10 C 34 8.896 33.104 8 32 8 C 30.896 8 30 8.896 30 10 C 30 11.104 30.896 12 32 12 C 33.104 12 34 11.104 34 10 L 34 10 L 34 10 Z  M 22 8 C 22 6.896 22.896 6 24 6 C 25.104 6 26 6.896 26 8 C 26 9.104 25.104 10 24 10 C 22.896 10 22 9.104 22 8 L 22 8 Z  M 17.715 42.989 L 17.715 42.989 C 18.762 43.336 19.33 44.468 18.983 45.515 L 18.983 45.515 C 18.635 46.562 17.503 47.13 16.456 46.782 L 16.456 46.782 C 14.056 45.993 11.799 44.824 9.772 43.328 C 3.053 38.369 -0.629 30.257 0.092 21.939 C 0.466 17.542 2.054 13.32 4.672 9.772 C 9.631 3.053 17.743 -0.629 26.061 0.092 C 30.458 0.466 34.672 2.048 38.228 4.672 C 44.947 9.631 48.629 17.743 47.908 26.061 C 47.534 30.458 45.952 34.672 43.328 38.228 C 39.978 42.766 35.137 45.991 29.661 47.331 L 29.661 47.331 C 28.587 47.588 27.502 46.926 27.24 45.855 L 27.24 45.855 C 26.977 44.783 27.64 43.701 28.717 43.44 L 28.717 43.44 C 33.283 42.323 37.312 39.642 40.109 35.853 C 42.289 32.9 43.612 29.39 43.924 25.717 C 44.517 18.785 41.453 12.024 35.853 7.891 C 32.892 5.705 29.39 4.388 25.717 4.076 C 18.785 3.483 12.024 6.547 7.891 12.147 C 5.711 15.1 4.388 18.61 4.076 22.283 C 3.483 29.215 6.547 35.976 12.147 40.109 C 13.837 41.356 15.714 42.332 17.715 42.989 Z " fill-rule="evenodd" fill="url(#_lgradient_10)"/></svg>
